X:1
T:Angel Eyes
T:Angel Eyes
T:JJ Johnson
T:DAT_BOI
C:DAT_BOI
%%score 1 2
L:1/8
Q:1/4=65
M:4/4
K:F
V:1 bass nm="Trombone" snm="Tbn."
V:2 treble transpose=-14 nm="Tenor Saxophone" snm="T. Sax."
V:1
"^\n\n" z2 z2 z2 F,C | =B,4 _A,_E D2- | D2- D=B, _A,F,=E, z | z4 _A,/B,/C CC/_D/ | %4
 _E/=E/_E/_D/ CC E/D/C/B,/ _A,A, | z2 F,C =B,2- (3:2:2B,2 _B, | _A,2 (3A,F,A,- A,2 z z | %7
 z2 (3F,_A,C (3G2 _G2 F2 | C8 | z2 F,C =B,2 _B,2 | _A,2 (3A,F,A,- A,2 (3z z F, | %11
 (3:2:2_A,2 F, (3:2:2A,2 F, A,2 (3:2:2A,2 F,- | F,8 | F,2 C2 =B,2 _B,2 | _A,2 (3A,F,A,- A,2 z2 | %15
 z2 (3F,_A,C (3G2 _G2 F2 | C8 | z8 | z8 | z8 | z8 | z8 | z8 | z8 | z8 | z8 | z8 | z8 | z8 | z8 | %30
 z8 | z8 |] %32
V:2
[K:G] z2 z2 z2 G^A | A4 Gd ^c2- | c2- c^A GE^D z | z4 G/A/^A AA/^B/ | %4
 d/^d/=d/c/ ^AA d/c/A/^G/ ^FF | z2 Gd ^c2- (3:2:2c2 =c | _B2 (3BGB- B2 z z | %7
 z2 (3G_Bd (3f2 ^e2 =e2 | c4 (3AGF- F2 | z2 G^A =A2 ^G2 | G2 (3:2:2G2 ^E (3:2:2A2 G- G2 | z8 | %12
 z4 d/^d/=d/c/ ^AF | G2 ^e2 =e2 ^d2 | d4 ^c4 | z2 (3G_Bd (3f2 ^e2 =e2 | cd ^d^A/G/ F4 | z8 | z8 | %19
 z8 | z8 | z8 | z8 | z8 | z8 | z8 | z8 | z8 | z8 | z8 | z8 | z8 |] %32

